!!!!SEGMENT: pl-wtm--r-1392_stefani-jozef--mazur.krn
!!!cenid: 18xx:2416
!!!COM: Stefani, Józef
!!!COM-rismID: pe30024097
!!!CDT: 1800/04/16-1876/03/19
!!!CNT: Polish
!!!OTL: Mazur
!!!PDT:
!!!AGN: Secular; Mazurka
!!!SMS-siglum: PL-Wtm
!!!SMS-shelfmark: R 1392
!!!SMS-shelfwork: W
!!!SMS-variant:
!!!SMS-altvar:
!!!NIFC-rismSourceID: 1001117322
!!!NIFC-rismChildID: 1001117322
!!!NIFC-islandoraID: pl-wtm:25413
!!!URL-pdf-islandora: https://repozytorium.nifc.pl/islandora/object/pl-wtm%3A25413/datastream/PDF/view
!!!URL-scan: https://polish.musicsources.pl/pl/lokalizacje/galeria/rekopisy/6224 @EN{Scan on Polish Music Sources Website} @PL{Skany w portalu Dziedzictwo Muzyki Polskiej w otwartym dostępie}
!!!ONB-nifc: UWAGA: razem z introdukcją
!!!AIN: 2 piano
!!!key:
**kern	**kern	**dynam
*part2	*part1	*part1
*staff2	*staff1	*
*Ipiano	*Ipiano	*
*I"[Piano]	*I"[Piano]	*
*clefF4	*clefG2	*
*k[b-]	*k[b-]	*
*D:	*D:	*
*M3/4	*M3/4	*
*>[A,B,B1,B,B2,C,C,D,D,E,E1,E,E2,B,B1,B,B2,C,C,F]	*>[A,B,B1,B,B2,C,C,D,D,E,E1,E,E2,B,B1,B,B2,C,C,F]	*
=1	=1	=1
*>A	*>A	*>A
*2\right	*2\right	*
!	!LO:TX:t=P:problem=all\right&colon; global	!
!	!LO:TX:i:a:t=moderato.	!
!	!LO:TX:i:a:t=Introducjone	!
(<8qAAA/	.	.
!	!	!LO:DY:b:rj
4AA/)	8.A'>/L	f
!	!	!LO:DY:b:rj
.	16c#X'>/Jk	p
4G 4E 4AA\	8c#'>/L	.
.	(>16d/L	.
.	16c#/JJ	.
4G 4E 4AA\	8.B-/L)	.
.	16A|>/Jk	.
=2	=2	=2
(<8qDD/	.	.
4D\)	8.d|</L	.
.	16f|</Jk	.
4F 4D 4AA/	(<4b-X^</	.
4F 4D 4AA/	8a/)	.
.	8r	.
=3	=3	=3
(<8qAAA/	.	.
4AA/)	8.A|</L	.
.	16c#|<X/Jk	.
4G 4E 4AA\	8c#|</L	.
.	(<16d/L	.
.	16c#/JJ	.
4G 4E 4AA\	8.B-/L)	.
.	16A|</Jk	.
=4	=4	=4
(<8qDD/	.	.
4D\)	8.d'</L	.
.	(<16B-/Jk	.
4F 4D 4AA/	2A/)	.
4F 4D 4AA/	.	.
!!LO:LB:g=original
=5	=5	=5
(<8qAAA/	.	.
!	!	!LO:DY:b:rj
4AA/)	8.a'>\L	f
.	16cc#|>X\Jk	.
4G 4E 4AA\	8cc#|>\L	.
.	(>16dd\L	.
.	16cc#\JJ	.
4G 4E 4AA\	8.b-\L)	.
.	16a|>\Jk	.
=6	=6	=6
(>8qDD/	.	.
4D\)	8.dd\L	.
.	16ff\Jk	.
!	!LO:S:s=1:note:problem=note-level slur	!
!	!LO:S:s=2:note:problem=note-level slur	!
4F 4D 4AA/	(>4bb-X (>4b-X^<\	.
!	!LO:S:s=1:note:problem=note-level slur	!
!	!LO:S:s=2:note:problem=note-level slur	!
4F 4D 4AA/	8aa) 8a\)	.
.	8r	.
=7	=7	=7
(<8qAAA/	.	.
4AA/)	8.a'>\L	.
.	16cc#|>X\Jk	.
4G 4E 4AA\	8cc#|>\L	.
.	(16dd\L	.
.	16cc#\JJ	.
4G 4E 4AA\	8.b-\L)	.
.	16a'>\Jk	.
=8	=8	=8
(>8qDD/	.	.
4D\)	8.dd\L	.
.	16b-\Jk	.
4F 4D 4AA/	2a/	.
4F 4D 4AA/	.	.
!!LO:LB:g=original
=9	=9	=9
*^	*	*
.	(<8qBBB-/	.	.
!	!	!	!LO:DY:b:rj
4r	2.BB-\)	8.dd\L	p
.	.	16b-\Jk	.
4F 4D/	.	4f/	.
4G 4F 4D/	.	4g/	.
=10	=10	=10	=10
4r	2.AA\	8.a/L	.
.	.	16b-/Jk	.
4A 4E 4C#X/	.	2a/	.
4A 4E 4C#/	.	.	.
=11	=11	=11	=11
!	!	!	!LO:DY:b:rj
4r	2.BB-\	8.dddL 8.dd\	f
.	.	16bb-Jk 16b-\	.
4F 4D/	.	4ff 4f\	.
4G 4F 4D/	.	4gg 4g\	.
*v	*v	*	*
=12	=12	=12
4..A 4..E 4..C#X 4..AA/	8.aaL 8.a\	.
.	16bb-K 16b-\	.
.	8.aa 8.a\	.
16C#XKL 16CC#X/	16eeK 16e\	.
8.D 8.DD/	8.ff 8.f\	.
16BB-Jk 16BBB-/	16ggJk 16g\	.
=13	=13	=13
*	*rep	*
4..AA 4..AAA/	8.aaL 8.a\	.
.	16bb-K 16b-\	.
.	8.aa 8.a\	.
16C#XKL 16CC#X/	16eeK 16e\	.
8.D 8.DD/	8.ff 8.f\	.
.	.	.
16BB-Jk 16BBB-/	16ggJk 16g\	.
*	*Xrep	*
=14	=14	=14
*rep	*rep	*
4..AA 4..AAA/	8.aaL 8.a\	.
.	16bb-K 16b-\	.
.	8.aa 8.a\	.
16C#XKL 16CC#X/	16eeK 16e\	.
8.D 8.DD/	8.ff 8.f\	.
.	.	.
16BB-Jk 16BBB-/	16ggJk 16g\	.
*Xrep	*Xrep	*
!!LO:LB:g=original
=15	=15	=15
4AA 4AAA/	8.aaL 8.a\	.
.	(>16b-\Jk	.
!	!	!LO:DY:b:rj
4g 4e\	8.a/L)	p
.	(<16b-/Jk	.
4f 4d\	8.a/L)	.
.	(<16b-/Jk	.
=16	=16	=16
4e 4c#X\	8.a/L)	.
.	(<16b-/Jk	.
4f 4d\	8.a/L)	.
.	(<16b-/Jk	.
8e 8A\	8.a;>\L)	.
8r;	.	.
!	!LO:TX:i:a:t=attacca mazur.	!
.	16aa\Jk	.
!!LO:PB:g=original
=17||	=17||	=17||
*>B	*>B	*>B
*k[f#c#]	*k[f#c#]	*
*M3/8	*M3/8	*
!	!LO:TX:a:t=P:problem=znak segno	!
!	!LO:TX:a:t=[segno]	!
!	!LO:TX:i:a:t=Mazur.	!LO:DY:b:rj
16.DLL 16.DD/	16.ff#LL 16.a 16.f#/	f
32AAJJk 32AAA/	32cc#JJk 32g 32e/	.
8BBL 8BBB/	8ddL 8f# 8d/	.
8GGJ 8GGG/	8bJ 8g 8d/	.
=18	=18	=18
16AA 16AAA/	16a 16f# 16d/	.
16r	16r	.
8C#L 8CC#/	8gL 8e 8A/	.
8DJ 8DD/	8f#J 8d 8A/	.
=19	=19	=19
8AA 8AAA/	16.eLL 16.c# 16.A/	.
.	32f#K 32d/	.
8r	16.g 16.e/	.
.	32aK 32f#/	.
8A 8AA\	16.b 16.g/	.
.	32cc#JJk 32e/	.
!!LO:LB:g=original
=20	=20	=20
8AL 8F# 8D\	8ddL 8f#^<\	.
8A 8E 8AA\	8ee 8cc# 8a^<\	.
8AJ 8F# 8D\	8ff#J 8dd 8a^<\	.
=21	=21	=21
16.ELL 16.EE/	16.ggLL 16.b 16.g\	.
32F#JJk 32FF#/	32dd#XJJk 32b 32a\	.
8GL 8GG/	8eeL 8b 8e/	.
8G#XJ 8GG#X/	8ddnJ 8b 8e/	.
=22	=22	=22
8A 8AA\	8cc#L 8a 8e^</	.
8BL 8G#X 8E\	8b 8g#X 8e^</	.
8c#J 8A\	8aJ 8e^</	.
=23	=23	=23
16E 16EE/	16g#X\LL	.
16r	32r	.
.	32ff#\K	.
8dL 8B 8G#X 8E\	16.ee\	.
.	32dd\K	.
8dJ 8B 8G# 8E\	16.cc#\	.
.	32b\JJk	.
!!LO:LB:g=original
=24	=24	=24
*>B1	*>B1	*>B1
16c# 16A\	16a/	.
16r	16r	.
!	!LO:TX:i:a:t=I.a.	!
8A 8AA\	8aa 8cc# 8a\	.
8A 8AA\	8gg 8ee 8cc# 8a\	.
=25:|!	=25:|!	=25:|!
*>B2	*>B2	*>B2
16c# 16A\	16a/	.
!	!LO:TX:i:a:t=2 a.	!
16r	16r	.
8A 8AA/	8aa 8cc# 8a\	.
8r	8r	.
=26!|:	=26!|:	=26!|:
*>C	*>C	*>C
16.ALL 16.AA/	16.a/LL	.
!	!	!LO:HP:b
32G#XK 32GG#X/	32b/K	<
16.Gn 16.GGn/	16.cc# 16.a/	.
32F#K 32FF#/	32ddK 32a/	.
16.E 16.EE/	16.ee 16.cc# 16.a/	.
32DJJk 32DD/	32ff#JJk 32dd 32a/	[
=27	=27	=27
16C# 16CC#/	16gg 16ee 16a\	.
16r	16r	.
8.AAL 8.AAA/	8.aaL 8.cc# 8.a^<\	.
16C#Jk 16CC#/	16ggJk 16ee 16a\	.
!!LO:LB:g=original
=28	=28	=28
!	!	!LO:DY:b:rj
16D 16DD/	16ff#LL 16dd\	f
16r	32rff	.
.	32bbJJk 32gg 32dd\	.
8dL 8A 8F# 8D\	8aaL 8ff# 8dd\	.
8dJ 8A 8F# 8D\	8ff#J 8dd\	.
=29	=29	=29
*rep	*	*
16D 16DD/	16dddLL 16ff# 16dd\	.
16r	32r	.
.	32bbJJk 32gg 32dd\	.
8dL 8A 8F# 8D\	8aaL 8ff# 8dd\	.
8dJ 8A 8F# 8D\	8ff#J 8dd\	.
*Xrep	*	*
=30	=30	=30
16.BLL 16.BB/	16.b\LL	.
32A#XK 32AA#X/	32cc#\K	.
!	!	!LO:HP:b
16.An 16.AAn/	16.dd#X 16.b\	<
32GK 32GG/	32eeK 32b\	.
16.F# 16.FF#/	16.ff# 16.dd# 16.b\	.
32EJJk 32EE/	32ggJJk 32ee 32b\	[
=31	=31	=31
16D#X 16DD#X/	16aa 16ff# 16b\	.
16r	16r	.
8.BBL 8.BBB/	8.bbL 8.dd#X 8.b\	.
16D#Jk 16DD#/	16aaJk 16ff# 16b\	.
!!LO:LB:g=original
=32	=32	=32
!	!	!LO:DY:b:rj
16ELL 16EE/	16.ggLL 16.ee\	f
32r	.	.
32DJJk 32DD/	32aaJJk 32ff#\	.
8GL 8GG\	8bbL 8gg\	.
8AJ 8AA\	8ccc#J 8gg 8ee\	.
*kcancel	*kcancel	*
=33	=33	=33
16D 16DD/	16ddd 16ff# 16dd\	.
16r	16r	.
8A 8F# 8D\	8dd 8f# 8d/	.
!LO:TX:i:b:t=fine.	!LO:TX:t=P:problem=fermata na kresce taktowej	!
8r	8r;>	.
!!LO:PB:g=original
=34:|!	=34:|!	=34:|!
*>D	*>D	*>D
*k[f#]	*k[f#]	*
*M3/8	*M3/8	*
!	!LO:TX:i:a:t=Trio.	!
!	!LO:TX:t=P:problem=w źródle kasownik przed krzyżykiem	!
(<8qe/	(<8qee/	.
16.d\LL)	16.dd\LL)	.
32c#X\JJk	32cc#|>X\JJk	.
4d\	4dd|>\	.
=35	=35	=35
(<8qe/	(<8qee/	.
16.d\LL)	16.dd\LL)	.
32c#X\JJk	32cc#|>X\JJk	.
4d\	4dd|>\	.
=36	=36	=36
!	!	!LO:DY:b
.	(<8qee 8qccn/	p
16G 16GG\	16.ddLL 16.b\)	.
16r	.	.
.	32cc#XJJk 32a#X'>\	.
8dL 8B 8G\	16ddLL 16b'>\	.
.	16b 16g'>\	.
8dJ 8B 8G\	16ccn 16an'>\	.
.	16cc#XJJ 16a#X'>\	.
!!LO:LB:g=original
=37	=37	=37
16G 16GG\	16ee 16ccn\	.
16r	16r	.
8dL 8B 8G\	4dd 4b^>\	.
8dJ 8B 8G\	.	.
=38	=38	=38
.	(<8qff#/	.
16G 16GG\	16.eeLL 16.cc\)	.
16r	.	.
.	32dd#XJJk 32b\	.
8eL 8c 8G\	16eeLL 16cc\	.
.	16gg 16ee\	.
8eJ 8c 8G\	16ff# 16dd#\	.
.	16eeJJ 16cc\	.
=39	=39	=39
16D 16DD/	16dd 16b\	.
16r	16r	.
8D#XL 8DD#X/	8ccL 8a 8f#/	.
8EJ 8EE/	8bJ 8g/	.
=40	=40	=40
!	!	!LO:DY:b
.	(<8qb/	f
16C#X 16CC#X/	16.a/LL)	.
16r	.	.
.	32g#X/JJk	.
8GL 8E 8AA/	8a/L	.
8GJ 8E 8AA/	8eeJ 8cc#X 8a/	.
!!LO:LB:g=original
=41	=41	=41
16D 16DD/	16.ff#LL 16.dd 16.a\	.
16r	.	.
.	32cc#X\K	.
8F#L 8D 8AA/	16.dd\	.
.	(>32b\JK	.
8F#J 8D 8AA/	8a\J)	.
=42	=42	=42
.	(<8qb/	.
16AA 16AAA/	16.a/LL)	.
16r	.	.
.	32g#X'</K	.
8GL 8E 8C#X 8AA/	16a'</	.
.	16e'</	.
8GJ 8E 8C# 8AA/	16gn'</	.
.	16f#'</JJ	.
=43	=43	=43
16D 16DD/	(<32f#/LLL	.
.	32e/J	.
16r	16d/JJ)	.
8A 8F# 8D\	8dd 8f# 8d/	.
8r	8r	.
=44:|!|:	=44:|!|:	=44:|!|:
*>E	*>E	*>E
*	*Xtuplet	*
!	!	!LO:DY:b:rj
16D/ 16DD	24dd'>\LL	f
.	(>24ff#\	.
16r	.	.
.	24gg\JJ	.
8cL 8A 8F# 8D\	8aa\L)	.
8cJ 8A 8F# 8D\	8cccJ 8aa 8ff# 8dd'>^<\	.
!!LO:LB:g=original
=45	=45	=45
16GG/	(>24eee\LL	.
.	24ddd\	.
16r	.	.
.	24ccc#X'>\JJ)	.
8BL 8G 8D\	8ddd'>\L	.
8BJ 8G 8D\	8bbJ 8gg 8dd'>^<\	.
=46	=46	=46
16D 16DD/	(24bb\LL	.
.	24ccc\)	.
16r	.	.
.	24gg#X'>\JJ	.
8cL 8A 8F# 8D\	8aa'>\L	.
8cJ 8A 8F# 8D\	8cccJ 8aa 8ff# 8dd'>\	.
=47	=47	=47
16GG/	(24eee\LL	.
.	24ddd\)	.
16r	.	.
.	24ccc#X'>\JJ	.
8BL 8G 8D\	8ddd'>\L	.
8BJ 8G 8D\	8bbJ 8gg 8dd'>\	.
=48	=48	=48
*^	*	*
!	!	!	!LO:DY:b:rj
8D#X\L	4D#X/	24b'>\LL	p
.	.	24dd#X'>\	.
.	.	24ee'>\JJ	.
8BJ 8F#\	.	16ff#'>\	.
.	.	16r	.
8B 8F# 8D#\	8ryy	8bb 8ff# 8dd# 8b'>\	.
!!LO:LB:g=original
=49	=49	=49	=49
8E\L	4E/	(>24aa\LL	.
.	.	24gg\)	.
.	.	24ff#'>\JJ	.
8BJ 8G\	.	8gg'>\L	.
8A 8E 8C\	8ryy	8ee'>\J	.
*v	*v	*	*
=50	=50	=50
!	!	!LO:DY:b:rj
8B 8G 8D\	24dd\LL	f
.	24bb\	.
.	24aa\JJ	.
8r	24gg\LL	.
.	24ff#\	.
.	24ee\JJ	.
8c 8A 8F# 8D\	24dd\LL	.
.	24cc\	.
.	24a\JJ	.
=51	=51	=51
*>E1	*>E1	*>E1
16B 16G\	16g/	.
16r	16r	.
!	!LO:TX:i:a:t=1a.	!
8G 8GG/	8gg 8dd 8b 8g^<\	.
8r	8dd\	.
=52:|!	=52:|!	=52:|!
*>E2	*>E2	*>E2
16B 16G\	16g/	.
16r	16r	.
16G 16GG/	16gg 16dd 16b 16g\	.
!	!LO:TX:i:a:t=2	!
32r	32r	.
32GKLL 32GG/	32aKLL 32e 32c/	.
16.E 16.EE/	16.cc#X 16.a 16.e/	.
!LO:TX:i:a:t=d'al segno al fine 𝄐\ne poi la Coda.	!	!
!	!LO:TX:a:t=P:problem=znak segno	!
!	!LO:TX:a:t=[segno]	!
32C#XJJk 32CC#X/	32eeJJk 32a 32g/	.
!!LO:LB:g=original
=53:|!	=53:|!	=53:|!
*>F	*>F	*>F
*k[f#c#]	*k[f#c#]	*
*M3/8	*M3/8	*
(<8qD/	.	.
!	!LO:TX:i:a:t=Coda.	!LO:DY:b:rj
16.d\LL)	16.dd'>\LL	p
32c#'>\K	32ee'>\K	.
16.cn'>\	16.ff# 16.dd'>\	.
32B'>\K	32ggK 32dd'>\	.
16.A'>\	16.aa 16.ff# 16.dd'>\	.
32G'>\JJk	32bbJJk 32gg 32dd'>\	.
=54	=54	=54
16F#\	16cccn 16aa 16dd'>\	.
16r	16r	.
!	!	!LO:DY:b:rj
8.DL 8.DD/	8.ddd|>L 8.ff# 8.dd^<\	f
16F#Jk 16FF#/	16ccc|>Jk 16aa 16dd\	.
=55	=55	=55
16G 16GG\	16bb|>LL 16gg 16dd\	.
16r	32r	.
.	32eee|>JJk 32cccn\	.
8r	8dddL 8bb'>\	.
8G 8D 8GG\	8bbJ 8gg'>\	.
=56	=56	=56
16G 16GG\	16ggg|> 16bb 16gg\	.
16r	32r	.
.	32eee|> 32cccn\	.
!LO:TX:t=P:problem=brak wpisanej pauzy ósemkowej	!	!
8ryy	8dddL 8bb'>\	.
8G 8D 8GG\	8bbJ 8gg'>\	.
!!LO:LB:g=original
=57	=57	=57
(>8qBB/	.	.
16.B\LL)	16.b\LL	.
32A#X\K	32cc#\K	.
16.An\	16.dd#X 16.b\	.
32G\K	32ee\K	.
16.F#\	16.ff# 16.dd# 16.b\	.
32E\JJk	32ggJJk 32ee 32b\	.
=58	=58	=58
16D#X\	16aa 16ff# 16b\	.
16r	16r	.
8.BBL 8.BBB/	8.bbL 8.dd#X 8.b\	.
16D#XJk 16DD#X/	16aaJk 16ff# 16b\	.
=59	=59	=59
!	!	!LO:DY:b:rj
16.ELL 16.EE/	16.ggLL 16.ee\	f
32DnJJk 32DDn/	32aaJJk 32ff#\	.
8GL 8GG/	8bbL 8gg\	.
8AJ 8E 8AA/	8ccc#J 8gg 8ee\	.
=60	=60	=60
16.BBLL 16.BBB/	8ddd 8ff# 8dd\	.
32BJJk 32BB/	.	.
8AL 8AA/	8r	.
8F#J 8FF#/	8r	.
=61	=61	=61
16.DLL 16.DD/	16.ff#LL 16.a 16.f#/	.
32AA#XJJk 32AAA#X/	32cc#JJk 32g 32e/	.
8BBL 8BBB/	8ddL 8f# 8d/	.
8GGJ 8GGG/	8bJ 8g 8d/	.
!!LO:LB:g=original
=62	=62	=62
16AA 16AAA/	16a 16f# 16d/	.
16r	16r	.
8C#L 8CC#/	8gL 8e 8A/	.
8DJ 8DD/	8f#J 8d 8A/	.
=63	=63	=63
16AA 16AAA/	16.eLL 16.c# 16.A/	.
!LO:TX:t=P:problem=brak wpisanej pauzy 16	!	!
16ryy	.	.
.	32f#K 32d/	.
8r	16.g 16.e/	.
.	32aK 32f#/	.
8A 8AA\	16.b 16.g/	.
.	32cc#JJk 32e/	.
=64	=64	=64
8AL 8F# 8D\	8ddL 8f#^</	.
8A 8E 8AA\	8ee 8cc# 8a^</	.
8AJ 8F# 8D\	8ff#J 8dd 8a^</	.
=65	=65	=65
16.ELL 16.EE/	16.ggLL 16.b 16.g\	.
32F#JJk 32FF#/	32dd#XJJk 32b 32a\	.
8GL 8GG/	8eeL 8b 8e/	.
8G#XJ 8GG#X/	8ddnJ 8b 8e/	.
=66	=66	=66
8AL 8AA/	8cc#L 8a 8e^</	.
8Gn 8GGn/	8cc# 8a 8e^</	.
8F#J 8FF#/	8ddJ 8a 8d^</	.
!!LO:LB:g=original
=67	=67	=67
16.GLL 16.GG/	16.bLL 16.g\	.
32EJJk 32EE/	32ggJJk 32ee 32b\	.
8AL 8AA\	8ff#L 8dd 8a\	.
8AJ 8E 8AA\	8eeJ 8cc# 8a\	.
=68||	=68||	=68||
(>16F#LL 16D\	16dd'>\LL	.
16A\	32rb	.
.	32b'>\JJk	.
16F# 16D\	16a'</LL	.
.	(>8qcc#\	.
16A\	16b/J)	.
16F# 16D\	8a'>/J	.
16A\JJ)	.	.
=69	=69	=69
(>16ELL 16AA\	16.cc#LL 16.a\	.
16A\	.	.
.	32ddJJk 32b\	.
16E 16AA\	8eeL 8cc#\	.
16A\	.	.
16E 16AA\	8aaJ 8cc# 8a\	.
16A\JJ)	.	.
=70	=70	=70
.	(<8qdd/	.
*tremolo	*	*
(>16F#LL 16D\	16ddd\LL)	.
16A\	32rff	.
.	32bb\JJk	.
16F# 16D\	16aa\LL	.
.	8qccc#/	.
16A\	16bb\J	.
16F# 16D\	8aa\J	.
16A\JJ)	.	.
=71	=71	=71
(>16ELL 16AA\	16.ccc#LL 16.aa\	.
16A\	.	.
.	32dddJJk 32bb\	.
16E 16AA\	8eeeL 8ccc#\	.
16A\	.	.
16E 16AA\	8aaaJ 8ccc# 8aa\	.
16A\JJ)	.	.
*Xtremolo	*	*
!!LO:LB:g=original
=72	=72	=72
(>16F#LL 16D\	16ddd'>\LL	.
16A\	16aa'>\	.
.	(<8qccc#/	.
16F# 16D\	16bb\)	.
16A\	16aa'>\	.
16E 16AA\	(>16ccc#\	.
16A\JJ)	16eee\JJ)	.
=73	=73	=73
*rep	*rep	*
(>16F#LL 16D\	16ddd'>\LL	.
16A\	16aa'>\	.
.	(<8qccc#/	.
16F# 16D\	16bb\)	.
16A\	16aa'>\	.
16E 16AA\	(>16ccc#\	.
16A\JJ)	16eee\JJ)	.
*Xrep	*Xrep	*
=74	=74	=74
*rep	*rep	*
(>16F#LL 16D\	16ddd'>\LL	.
16A\	16aa'>\	.
.	(<8qccc#/	.
16F# 16D\	16bb\)	.
16A\	16aa'>\	.
16E 16AA\	(>16ccc#\	.
16A\JJ)	16eee\JJ)	.
*Xrep	*Xrep	*
=75	=75	=75
*rep	*rep	*
(>16F#LL 16D\	16ddd'>\LL	.
16A\	16aa'>\	.
.	(<8qccc#/	.
16F# 16D\	16bb\)	.
16A\	16aa'>\	.
16E 16AA\	(>16ccc#\	.
16A\JJ)	16eee\JJ)	.
*Xrep	*Xrep	*
=76	=76	=76
!	!	!LO:DY:b:rj
8D 8DD/	(>16dddLL 16ff#\	ff
.	16dd\	.
8dL 8D\	16ddd 16ff#\	.
.	16dd\	.
8AJ 8AA\	16ddd 16ff#\	.
.	16dd\JJ)	.
=77	=77	=77
*	*rep	*
!	!	!LO:DY:b:rj
8F#L 8FF#/	(>16dddLL 16ff#\	ff
.	16dd\	.
8A 8AA/	16ddd 16ff#\	.
.	16dd\	.
8F#J 8FF#/	16ddd 16ff#\	.
.	16dd\JJ)	.
*	*Xrep	*
!!LO:LB:g=original
=78	=78	=78
8D 8DD/	8ddd 8ff# 8dd\	.
8r	8r	.
8r	8r	.
=79	=79	=79
8d 8A 8F# 8D\	8fff# 8ddd 8aa 8ff#\	.
8.r	8.r	.
16D 16DD\	16d 16A< 16F#</	.
=80	=80	=80
4.D 4.DD;<\	4.d 4.A< 4.F#<;>/	.
==	==	==
*-	*-	*-
!!!system-decoration: {(s1,s2)}
!!!RDF**kern: | = vertical stroke
!!!RDF**kern: > = above
!!!RDF**kern: < = below
!!!EED: Antoni Szymański
!!!EEV: 2021-06-25
!!!ENC: Anastazja Marusiak
!!!END: 2021-06-16
!!!YEC: Copyright 2022 Narodowy Instytut Fryderyka Chopina (https://polishscores.org)
!!!YEM: License CC-BY-4.0 (https://creativecommons.org/licenses/by/4.0)
